X:1
T:[ID 2v-9a (=2-135a)]
T:[ID 2v-9a (=2-135a)]
T:Bezeichnung standardisiert: Sonata Allegro Sonata Allegro
T:Urheber unbekannt Datum in der hier transkribierten schriftlichen Quelle: 1767
C:Urheber unbekannt
C:Datum in der hier transkribierten schriftlichen Quelle: 1767
L:1/8
M:2/4
K:D
V:1 treble 
V:1
 z | FA c2 | dgfe | d2 AG | F2 z/ F/G/E/ | Fdcc | dgfe | df e/d/c/B/ | cccc | dc z c | B A2 ^G | %11
 Accc | dc z c | B A2 ^G | A2 z A/B/ | cc cB/A/ | B2 z ^G/A/ | BB c/B/A/G/ | Ac A2 | z e c2 | %20
 z a2 e | z afc | B2 ^G2 | Ac A2 | z e c2 | z a2 e | z c'ac | B2 ^G2 | A2 z2 | z cdB | c2 z :: z | %32
 cfed | cdcB | Ac dc/B/ | c2 z c | ^ddBf | e^GBG"^[Notat bricht ab]" | x4 | %39

